images/qr-l.svg

<svg id="Layer_1" data-name="Layer 1" xmlns="http://www.w3.org/2000/svg" viewBox="0 0 500 500"><defs><style>.cls-1{fill:#fff;}.cls-2{fill:#020202;}.cls-3{fill:#aadac8;}.cls-4{fill:#71c380;}.cls-5{fill:#93d0af;}.cls-6{fill:#81c998;}.cls-7{fill:#d2e4f4;}.cls-8{fill:#44af59;}.cls-9{fill:#fed247;}.cls-10{fill:#456daa;}.cls-11{fill:#34679a;}.cls-12{fill:#77c4d5;}</style></defs><title>qrcode-l.cncf.io</title><path class="cls-1" d="M-30.92674-27.90154v553h553v-553Z"/><path class="cls-2" d="M28.857,31.88225V136.50387H133.47867V31.88225H28.857m119.56757,0V61.77414h14.94595V76.72009H148.42461v59.78378h14.94595v14.94595h14.94595V136.50387h14.94595v29.89189H208.2084v14.94595H193.26245V211.2336H178.31651v14.94595H163.37056v29.89189h14.94595V226.17955h14.94595V211.2336h10.46216c1.34364-3.17451,1.30928-3.14014,4.48378-4.48378V196.28765h14.94595V166.39576H208.2084V136.50387h14.94595V121.55792H208.2084v14.94595H193.26245V121.55792H178.31651V76.72009h14.94595V61.77414H208.2084V46.82819h14.94595V76.72009H208.2084V91.666H193.26245V106.612h44.83784v74.72973h14.94595V106.612h29.89189v14.94595H267.99218v14.94595h14.94595V121.55792h14.94595v14.94595H312.83v44.83784H327.776v14.94595h14.94595V211.2336h-26.9027v29.89189H327.776V226.17955h14.94595v14.94595h14.94595v14.94595H372.6138v14.94595h14.94595v14.94595h14.94595V271.01738H387.55975V256.07144H372.6138V241.12549h14.94595V211.2336h59.78378V181.34171h14.94595V151.44982H432.39759v14.94595h14.94595v14.94595H432.39759v14.94595H417.45164V181.34171H402.50569V166.39576h14.94595V151.44982H372.6138v14.94595h14.94595v14.94595h14.94595v14.94595H372.6138V181.34171H357.66786V166.39576H327.776V151.44982h14.94595V106.612H312.83V91.666H327.776V76.72009H297.88407V61.77414H282.93813V46.82819H267.99218V31.88225H253.04624V46.82819H238.10029V31.88225H208.2084V46.82819H193.26245V31.88225H148.42461m179.35135,0V61.77414h14.94595V31.88225H327.776m29.89189,0V136.50387H462.28948V31.88225Z"/><path class="cls-1" d="M43.803,46.82819v74.72973h74.72973V46.82819H43.803m119.56757,0V61.77414h14.94595V46.82819H163.37056m209.24324,0v74.72973h74.72973V46.82819Z"/><path class="cls-2" d="M58.74894,61.77414V106.612h44.83784V61.77414Z"/><path class="cls-1" d="M238.10029,61.77414V76.72009H223.15434V91.666h74.72973V76.72009H282.93813V61.77414Z"/><path class="cls-2" d="M387.55975,61.77414V106.612h44.83784V61.77414Z"/><path class="cls-1" d="M163.37056,121.55792v14.94595h14.94595V121.55792H163.37056m149.45946,0v14.94595H327.776V121.55792Z"/><path class="cls-2" d="M73.69488,151.44982v14.94595H28.857v29.89189H43.803V181.34171H58.74894v59.78378H73.69488V166.39576H88.64083v14.94595h14.94595V166.39576H88.64083V151.44982H73.69488m44.83784,0v14.94595h14.94595v14.94595H118.53272v14.94595h14.94595V181.34171h14.94595V211.2336H88.64083v14.94595h44.83784v14.94595H88.64083v29.89189h14.94595V256.07144h44.83784V211.2336h14.94595V181.34171H148.42461V166.39576H133.47867V151.44982H118.53272m164.40541,0v14.94595H267.99218v14.94595h14.94595V166.39576h14.94595V151.44982Z"/><path class="cls-1" d="M342.72191,181.34171v14.94595h14.94595V181.34171Z"/><path class="cls-2" d="M238.10029,196.28765v10.46216h44.83784V196.28765H238.10029m59.78378,0v10.46216H312.83V196.28765H297.88407M28.857,211.2336v74.72973H43.803V271.01738H58.74894V256.07144H43.803V211.2336Z"/><path class="cls-1" d="M342.72191,211.2336v14.94595h14.94595v14.94595H372.6138V226.17955H357.66786V211.2336Z"/><path class="cls-2" d="M402.50569,226.17955v14.94595h14.94595V226.17955H402.50569m29.89189,0v29.89189h14.94595v14.94595h14.94595V241.12549H447.34353V226.17955Z"/><path class="cls-2" d="M315.81921,256.07144v14.94595h26.9027V256.07144Z"/><path class="cls-3" d="M248.56245,260.55522l1.49459,1.49459Z"/><path class="cls-4" d="M250.057,260.55522l1.49459,1.49459Z"/><path class="cls-5" d="M247.06786,262.04982l1.49459,1.49459Z"/><path class="cls-4" d="M245.57326,263.54441l1.49459,1.49459Z"/><path class="cls-3" d="M241.08948,266.5336l1.49459,1.49459Z"/><path class="cls-5" d="M239.59488,268.02819l1.49459,1.49459Z"/><path class="cls-4" d="M274.96747,268.52588c-.66511.66511.91319.58141.99538.49922C276.62795,268.36,275.04966,268.44369,274.96747,268.52588Z"/><path class="cls-6" d="M238.10029,269.52279l1.49459,1.49459Z"/><path class="cls-4" d="M272.476,269.52279l1.49459,1.49459Z"/><path class="cls-5" d="M278.45434,269.52279l1.49459,1.49459Z"/><path class="cls-2" d="M118.53272,271.01738v14.94595H73.69488v14.94595H58.74894v14.94595H73.69488V300.90928h29.89189v14.94595H88.64083v14.94595H73.69488v14.94595h59.78378V330.80117H103.58678V315.85522h44.83784V285.96333h14.94595v14.94595h14.94595v14.94595H163.37056v29.89189H148.42461v14.94595h14.94595V375.639h29.89189v44.83784H208.2084v14.94595H178.31651v29.89189h59.78378V450.36874H223.15434V420.47684h14.94595v14.94595h14.94595v14.94595h14.94595v14.94595h29.89189V450.36874H327.776V435.42279h14.94595V420.47684H372.6138V405.5309h14.94595v29.89189H357.66786v29.89189H372.6138V450.36874h14.94595v14.94595h29.89189V450.36874H387.55975V435.42279h29.89189V420.47684h14.94595V405.5309h14.94595v29.89189H432.39759v29.89189h14.94595V435.42279h14.94595V405.5309H447.34353V390.585h14.94595V375.639H447.34353V360.69306h14.94595V285.96333H432.39759v29.89189h14.94595v29.89189H432.39759V330.80117H417.45164V315.85522H387.55975V300.90928H372.6138v14.94595h14.94595v14.94595H327.776v14.94595H238.10029V375.639h14.94595V390.585h14.94595v44.83784H253.04624V420.47684H238.10029V390.585H223.15434V375.639H193.26245V360.69306h29.89189V345.74711H193.26245V330.80117H178.31651V315.85522h14.94595V300.90928H178.31651V285.96333h14.94595V271.01738H178.31651v14.94595H163.37056V271.01738Z"/><path class="cls-4" d="M279.94894,271.01738l1.49459,1.49459Z"/><path class="cls-5" d="M267.99218,272.512l1.49459,1.49459Z"/><path class="cls-3" d="M282.93813,272.512l1.49459,1.49459Z"/><path class="cls-5" d="M265.003,274.00657l1.49459,1.49459Z"/><path class="cls-4" d="M266.49759,274.00657l1.49459,1.49459Z"/><path class="cls-6" d="M284.43272,274.00657l1.49459,1.49459Z"/><path class="cls-1" d="M118.53272,285.96333v14.94595h14.94595V285.96333Z"/><path class="cls-2" d="M315.81921,285.96333v14.94595h26.9027v14.94595h14.94595V300.90928H342.72191V285.96333Z"/><path class="cls-2" d="M28.857,300.90928v14.94595H43.803V300.90928Z"/><path class="cls-2" d="M208.2084,318.84441v11.95676h29.89189V318.84441H208.2084m59.78378,0v11.95676H312.83V318.84441H267.99218M28.857,330.80117v14.94595H43.803V330.80117Z"/><path class="cls-1" d="M402.50569,330.80117v29.89189h29.89189V345.74711H417.45164V330.80117H402.50569M163.37056,345.74711v14.94595h29.89189V345.74711H163.37056m179.35135,0V390.585h44.83784V345.74711Z"/><path class="cls-2" d="M28.857,360.69306V465.31468H133.47867V360.69306Z"/><path class="cls-1" d="M253.04624,360.69306V375.639H312.83V390.585H297.88407V405.5309H282.93813v44.83784h14.94595V435.42279H312.83V405.5309H327.776V360.69306Z"/><path class="cls-2" d="M357.66786,360.69306V375.639H372.6138V360.69306Z"/><path class="cls-1" d="M43.803,375.639v74.72973h74.72973V375.639H43.803m358.7027,0V390.585h14.94595V405.5309H402.50569v14.94595h14.94595V405.5309h14.94595V390.585H417.45164V375.639Z"/><path class="cls-2" d="M58.74894,390.585v44.83784h44.83784V390.585H58.74894m104.62162,0V405.5309H148.42461v14.94595h29.89189V390.585Z"/><path class="cls-7" d="M226.72083,208.37231l-.11461-.11461H205.2325v21.37372l.11461.11461-.11461,14.15366v22.103c8.32753-6.72958,16.65168-13.42245,24.92647-20.212,1.66178-1.37523,2.7505-1.31794,4.29767.22922,6.074,6.246,12.32,12.26266,18.45132,18.50861,1.31794,1.31794,2.29209,1.37527,3.72464.22922,3.38081-2.69321,6.87627-5.21452,10.19979-7.965,1.77639-1.48984,3.15162-1.37527,4.928-.05729,4.65609,3.48122,9.34533,6.8962,14.04244,10.29541l.11118-13.73354V208.2577H240.87449Zm38.679,7.33468a12.13632,12.13632,0,0,1,12.32,12.3773,12.37728,12.37728,0,1,1-12.32-12.3773Z"/><path class="cls-8" d="M266.83239,256.79269c-3.32352,2.7505-6.819,5.27181-10.19979,7.965-1.43256,1.146-2.4067,1.08872-3.72464-.22922-6.13135-6.246-12.3773-12.26266-18.45132-18.50861-1.54717-1.54717-2.63589-1.60446-4.29767-.22922-8.27479,6.78957-16.59893,13.48243-24.92647,20.212v22.93656H250.272l14.15366-.11458.11461.11458H285.914V267.56551l-.11458-.11461.00339-.42008c-4.69711-3.39921-9.38635-6.81419-14.04244-10.29541C269.984,255.41743,268.60878,255.30285,266.83239,256.79269Z"/><path class="cls-9" d="M265.45716,240.40427a12.43856,12.43856,0,0,0,12.26266-12.32,12.13632,12.13632,0,0,0-12.32-12.3773,12.3492,12.3492,0,1,0,.05732,24.69728Z"/><path class="cls-9" d="M265.45718,240.86371a12.87512,12.87512,0,0,1-12.95151-12.77162,12.36977,12.36977,0,0,1,3.56714-8.89227,13.07123,13.07123,0,0,1,9.32336-3.952,12.56007,12.56007,0,0,1,9.08292,3.6739A12.69569,12.69569,0,0,1,278.179,228.088,12.92094,12.92094,0,0,1,265.45718,240.86371Zm.05024-24.69767c-.035,0-.06908,0-.10407.00045a12.1607,12.1607,0,0,0-8.67292,3.6748,11.45468,11.45468,0,0,0-3.30606,8.23555,11.91809,11.91809,0,0,0,23.83594.00763,11.78556,11.78556,0,0,0-3.43077-8.51277A11.666,11.666,0,0,0,265.50742,216.166Z"/><polygon class="cls-10" points="226.721 288.939 205.232 288.939 205.232 267.451 189.073 267.451 189.073 305.098 226.721 305.098 226.721 288.939"/><polygon class="cls-10" points="285.799 267.451 285.914 267.566 285.914 288.939 264.54 288.939 264.426 288.825 264.426 305.098 302.073 305.098 302.073 267.451 285.799 267.451"/><polygon class="cls-10" points="205.347 229.746 205.232 229.631 205.232 208.258 226.606 208.258 226.721 208.372 226.721 192.098 189.073 192.098 189.073 229.746 205.347 229.746"/><polygon class="cls-11" points="264.426 192.098 264.426 208.258 285.914 208.258 285.914 229.746 302.073 229.746 302.073 192.098 264.426 192.098"/><polygon class="cls-12" points="226.721 208.372 240.874 208.258 264.426 208.258 264.426 192.098 226.721 192.098 226.721 208.372"/><polygon class="cls-12" points="264.426 288.825 250.272 288.939 242.88 288.939 226.721 288.939 226.721 305.098 264.426 305.098 264.426 288.825"/><polygon class="cls-12" points="285.914 229.746 285.914 245.905 285.914 253.297 285.803 267.031 285.799 267.451 302.073 267.451 302.073 229.746 285.914 229.746"/><polygon class="cls-12" points="205.232 267.451 205.232 266.003 205.232 243.9 205.347 229.746 189.073 229.746 189.073 267.451 205.232 267.451"/></svg>

<svg xmlns="http://www.w3.org/2000/svg" role="img" viewBox="19.83 22.83 450.84 450.84"><defs><style>.cls-1{fill:#fff}.cls-2{fill:#020202}.cls-3{fill:#aadac8}.cls-4{fill:#71c380}.cls-5{fill:#93d0af}.cls-6{fill:#81c998}.cls-9{fill:#fed247}</style></defs><path d="M-30.927-27.902v553h553v-553z" class="cls-1"/><path d="M28.857 31.882v104.622h104.622V31.882H28.857m119.568 0v29.892h14.946V76.72h-14.946v59.784h14.946v14.946h14.946v-14.946h14.945v29.892h14.946v14.946h-14.946v29.892h-14.945v14.946H163.37v29.891h14.946V226.18h14.945v-14.946h10.463c1.343-3.175 1.309-3.14 4.483-4.484v-10.462h14.946v-29.892h-14.946v-29.892h14.946v-14.946h-14.946v14.946h-14.946v-14.946h-14.945V76.72h14.945V61.774h14.946V46.828h14.946V76.72h-14.946v14.946h-14.946v14.946H238.1v74.73h14.946v-74.73h29.892v14.946h-14.946v14.946h14.946v-14.946h14.946v14.946h14.946v44.838h14.946v14.946h14.946v14.946h-26.903v29.891h11.957V226.18h14.946v14.945h14.946v14.946h14.946v14.946h14.946v14.946h14.946v-14.946H387.56v-14.946h-14.946v-14.946h14.946v-29.891h59.784v-29.892h14.945V151.45h-29.891v14.946h14.946v14.946h-14.946v14.946h-14.946v-14.946h-14.946v-14.946h14.946V151.45h-44.838v14.946h14.946v14.946h14.946v14.946h-29.892v-14.946h-14.946v-14.946h-29.892V151.45h14.946v-44.838H312.83V91.666h14.946V76.72h-29.892V61.774h-14.946V46.828h-14.946V31.882h-14.946v14.946H238.1V31.882h-29.892v14.946h-14.946V31.882h-44.837m179.351 0v29.892h14.946V31.882h-14.946m29.892 0v104.622h104.621V31.882z" class="cls-2"/><path d="M43.803 46.828v74.73h74.73v-74.73h-74.73m119.568 0v14.946h14.946V46.828H163.37m209.243 0v74.73h74.73v-74.73z" class="cls-1"/><path d="M58.749 61.774v44.838h44.838V61.774z" class="cls-2"/><path d="M238.1 61.774V76.72h-14.946v14.946h74.73V76.72h-14.946V61.774z" class="cls-1"/><path d="M387.56 61.774v44.838h44.838V61.774z" class="cls-2"/><path d="M163.37 121.558v14.946h14.947v-14.946H163.37m149.459 0v14.946h14.946v-14.946z" class="cls-1"/><path d="M73.695 151.45v14.946H28.857v29.892h14.946v-14.946h14.946v59.783h14.946v-74.73H88.64v14.947h14.946v-14.946H88.64V151.45H73.695m44.838 0v14.946h14.946v14.946h-14.946v14.946h14.946v-14.946h14.946v29.892H88.64v14.946h44.838v14.945H88.64v29.892h14.946v-14.946h44.838v-44.837h14.946v-29.892h-14.946v-14.946h-14.946V151.45h-14.946m164.405 0v14.946h-14.946v14.946h14.946v-14.946h14.946V151.45z" class="cls-2"/><path d="M342.722 181.342v14.946h14.946v-14.946z" class="cls-1"/><path d="M238.1 196.288v10.462h44.838v-10.462H238.1m59.784 0v10.462h14.946v-10.462h-14.946M28.857 211.234v74.73h14.946v-14.947h14.946v-14.946H43.803v-44.837z" class="cls-2"/><path d="M342.722 211.234v14.946h14.946v14.945h14.946V226.18h-14.946v-14.946z" class="cls-1"/><path d="M402.506 226.18v14.945h14.946V226.18h-14.946m29.892 0v29.891h14.946v14.946h14.945v-29.892h-14.945V226.18zM315.82 256.071v14.946h26.902v-14.946z" class="cls-2"/><path d="M248.562 260.555l1.495 1.495z" class="cls-3"/><path d="M250.057 260.555l1.495 1.495z" class="cls-4"/><path d="M247.068 262.05l1.494 1.494z" class="cls-5"/><path d="M245.573 263.544l1.495 1.495z" class="cls-4"/><path d="M241.09 266.534l1.494 1.494z" class="cls-3"/><path d="M239.595 268.028l1.494 1.495z" class="cls-5"/><path d="M274.967 268.526c-.665.665.914.581.996.5.665-.666-.913-.582-.996-.5z" class="cls-4"/><path d="M238.1 269.523l1.495 1.494z" class="cls-6"/><path d="M272.476 269.523l1.495 1.494z" class="cls-4"/><path d="M278.454 269.523l1.495 1.494z" class="cls-5"/><path d="M118.533 271.017v14.946H73.695v14.946H58.749v14.946h14.946V300.91h29.892v14.946H88.64v14.946H73.695v14.946h59.784v-14.946h-29.892v-14.946h44.838v-29.892h14.946v14.946h14.946v14.946H163.37v29.892h-14.946v14.946h14.946v14.946h29.891v44.838h14.946v14.946h-29.891v29.892H238.1V450.37h-14.946v-29.892H238.1v14.946h14.946v14.946h14.946v14.946h29.892V450.37h29.892v-14.946h14.946v-14.946h29.892V405.53h14.946v29.892h-29.892v29.892h14.946v-14.946h14.946v14.946h29.892v-14.946H387.56v-14.946h29.892v-14.946h14.946V405.53h14.946v29.892h-14.946v29.892h14.946v-29.892h14.945V405.53h-14.945v-14.946h14.945v-14.946h-14.945v-14.946h14.945v-74.73h-29.891v29.892h14.946v29.892h-14.946V330.8h-14.946v-14.946H387.56V300.91h-14.946v14.946h14.946v14.946h-59.784v14.946H238.1v29.892h14.946v14.946h14.946v44.838h-14.946v-14.946H238.1v-29.892h-14.946V375.64h-29.892v-14.946h29.892v-14.946h-29.892v-14.946h-14.945v-14.946h14.945V300.91h-14.945v-14.946h14.945v-14.946h-14.945v14.946H163.37v-14.946z" class="cls-2"/><path d="M279.949 271.017l1.495 1.495z" class="cls-4"/><path d="M267.992 272.512l1.495 1.495z" class="cls-5"/><path d="M282.938 272.512l1.495 1.495z" class="cls-3"/><path d="M265.003 274.007l1.495 1.494z" class="cls-5"/><path d="M266.498 274.007l1.494 1.494z" class="cls-4"/><path d="M284.433 274.007l1.494 1.494z" class="cls-6"/><path d="M118.533 285.963v14.946h14.946v-14.946z" class="cls-1"/><path d="M315.82 285.963v14.946h26.902v14.946h14.946V300.91h-14.946v-14.946zM28.857 300.91v14.945h14.946V300.91zm179.351 17.934v11.957H238.1v-11.957h-29.892m59.784 0v11.957h44.838v-11.957h-44.838M28.857 330.801v14.946h14.946v-14.946z" class="cls-2"/><path d="M402.506 330.801v29.892h29.892v-14.946h-14.946v-14.946h-14.946M163.37 345.747v14.946h29.891v-14.946H163.37m179.35 0v44.838h44.839v-44.838z" class="cls-1"/><path d="M28.857 360.693v104.622h104.622V360.693z" class="cls-2"/><path d="M253.046 360.693v14.946h59.784v14.946h-14.946v14.946h-14.946v44.838h14.946v-14.946h14.946V405.53h14.946v-44.838z" class="cls-1"/><path d="M357.668 360.693v14.946h14.946v-14.946z" class="cls-2"/><path d="M43.803 375.639v74.73h74.73v-74.73h-74.73m358.703 0v14.946h14.946v14.946h-14.946v14.946h14.946V405.53h14.946v-14.946h-14.946v-14.946z" class="cls-1"/><path d="M58.749 390.585v44.838h44.838v-44.838H58.749m104.622 0v14.946h-14.946v14.946h29.891v-29.892z" class="cls-2"/><path fill="#d2e4f4" d="M226.72 208.372l-.114-.114h-21.374v21.373l.115.115-.115 14.154v22.103c8.328-6.73 16.652-13.423 24.927-20.212 1.662-1.376 2.75-1.318 4.298.229 6.074 6.246 12.32 12.263 18.451 18.509 1.318 1.317 2.292 1.375 3.725.229 3.38-2.693 6.876-5.215 10.2-7.965 1.776-1.49 3.151-1.376 4.927-.058 4.656 3.482 9.346 6.897 14.043 10.296l.111-13.734v-45.04h-45.04zm38.68 7.335a12.136 12.136 0 0 1 12.32 12.377 12.377 12.377 0 1 1-12.32-12.377z"/><path fill="#44af59" d="M266.832 256.793c-3.323 2.75-6.819 5.271-10.2 7.965-1.432 1.146-2.406 1.088-3.724-.23-6.131-6.246-12.377-12.262-18.451-18.508-1.548-1.547-2.636-1.605-4.298-.23-8.275 6.79-16.599 13.483-24.927 20.213v22.936h45.04l14.154-.114.114.114h21.374v-21.373l-.115-.115.004-.42c-4.697-3.4-9.387-6.814-14.043-10.296-1.776-1.318-3.151-1.432-4.928.058z"/><path d="M265.457 240.404a12.439 12.439 0 0 0 12.263-12.32 12.136 12.136 0 0 0-12.32-12.377 12.35 12.35 0 1 0 .057 24.697z" class="cls-9"/><path d="M265.457 240.864a12.875 12.875 0 0 1-12.951-12.772 12.37 12.37 0 0 1 3.567-8.892 13.071 13.071 0 0 1 9.323-3.952 12.56 12.56 0 0 1 9.083 3.674 12.696 12.696 0 0 1 3.7 9.166 12.92 12.92 0 0 1-12.722 12.776zm.05-24.698h-.104a12.16 12.16 0 0 0-8.673 3.675 11.455 11.455 0 0 0-3.306 8.236 11.918 11.918 0 0 0 23.836.007 11.786 11.786 0 0 0-3.43-8.512 11.666 11.666 0 0 0-8.323-3.406z" class="cls-9"/><path fill="#456daa" d="M226.721 288.939h-21.489v-21.488h-16.159v37.647h37.648v-16.159zm59.078-21.488l.115.115v21.373H264.54l-.114-.114v16.273h37.647v-37.647h-16.274zm-80.452-37.705l-.115-.115v-21.373h21.374l.115.114v-16.274h-37.648v37.648h16.274z"/><path fill="#34679a" d="M264.426 192.098v16.16h21.488v21.488h16.159v-37.648h-37.647z"/><path fill="#77c4d5" d="M226.721 208.372l14.153-.114h23.552v-16.16h-37.705v16.274zm37.705 80.453l-14.154.114h-23.551v16.159h37.705v-16.273zm21.488-59.079v23.551l-.111 13.734-.004.42h16.274v-37.705h-16.159zm-80.682 37.705V243.9l.115-14.154h-16.274v37.705h16.159z"/></svg>
